svg/24/profile.svg

<svg width="24" height="24" viewBox="0 0 24 24" fill="currentColor" xmlns="http://www.w3.org/2000/svg"><path fill-rule="evenodd" clip-rule="evenodd" d="M7 9C7 7.89543 7.89543 7 9 7H15C16.1046 7 17 7.89543 17 9V15C17 16.1046 16.1046 17 15 17H9C7.89543 17 7 16.1046 7 15V9ZM9 8.5H11.25V11.25H8.5V9C8.5 8.72386 8.72386 8.5 9 8.5ZM8.5 12.75V15C8.5 15.2761 8.72386 15.5 9 15.5H11.25V12.75H8.5ZM12.75 12.75V15.5H15C15.2761 15.5 15.5 15.2761 15.5 15V12.75H12.75ZM15.5 11.25V9C15.5 8.72386 15.2761 8.5 15 8.5H12.75V11.25H15.5Z"/><path fill-rule="evenodd" clip-rule="evenodd" d="M5 3C3.89543 3 3 3.89543 3 5V19C3 20.1046 3.89543 21 5 21H19C20.1046 21 21 20.1046 21 19V5C21 3.89543 20.1046 3 19 3H5ZM19 4.5H5C4.72386 4.5 4.5 4.72386 4.5 5V19C4.5 19.2761 4.72386 19.5 5 19.5H19C19.2761 19.5 19.5 19.2761 19.5 19V5C19.5 4.72386 19.2761 4.5 19 4.5Z"/></svg>

<svg xmlns="http://www.w3.org/2000/svg" width="24" height="24" fill="currentColor" viewBox="0 0 24 24">
  <path fill-rule="evenodd" d="M7 9a2 2 0 0 1 2-2h6a2 2 0 0 1 2 2v6a2 2 0 0 1-2 2H9a2 2 0 0 1-2-2V9Zm2-.5h2.25v2.75H8.5V9a.5.5 0 0 1 .5-.5Zm-.5 4.25V15a.5.5 0 0 0 .5.5h2.25v-2.75H8.5Zm4.25 0v2.75H15a.5.5 0 0 0 .5-.5v-2.25h-2.75Zm2.75-1.5V9a.5.5 0 0 0-.5-.5h-2.25v2.75h2.75Z" clip-rule="evenodd"/>
  <path fill-rule="evenodd" d="M5 3a2 2 0 0 0-2 2v14a2 2 0 0 0 2 2h14a2 2 0 0 0 2-2V5a2 2 0 0 0-2-2H5Zm14 1.5H5a.5.5 0 0 0-.5.5v14a.5.5 0 0 0 .5.5h14a.5.5 0 0 0 .5-.5V5a.5.5 0 0 0-.5-.5Z" clip-rule="evenodd"/>
</svg>
